icons/svg/32x32/menu burger typo/outline.svg

<svg xmlns="http://www.w3.org/2000/svg" width="32" height="32" viewBox="0 0 32 32">
  <path fill-rule="evenodd" d="M27.8242,19.9999 L27.8242,24.5119 C27.8242,25.3009 27.3512,26.1009 26.4502,26.1009 C25.5492,26.1009 25.0762,25.3009 25.0762,24.5119 L25.0762,19.9999 L23.9002,19.9999 L23.9002,24.5119 C23.9002,26.0359 24.9962,27.1849 26.4502,27.1849 C27.9042,27.1849 29.0002,26.0359 29.0002,24.5119 L29.0002,19.9999 L27.8242,19.9999 Z M20.8242,24.5089 L18.0332,19.9999 L16.9002,19.9999 L16.9002,27.0619 L18.0762,27.0619 L18.0762,22.5529 L20.8672,27.0619 L22.0002,27.0619 L22.0002,19.9999 L20.8242,19.9999 L20.8242,24.5089 Z M10.9002,27.0289 L15.0002,27.0289 L15.0002,25.8579 L12.0712,25.8579 L12.0712,24.1009 L14.0232,24.1009 L14.0232,22.9289 L12.0712,22.9289 L12.0712,21.1719 L15.0002,21.1719 L15.0002,19.9999 L10.9002,19.9999 L10.9002,27.0289 Z M5.9502,24.7529 L4.0732,20.0619 L4.0492,19.9999 L2.9002,19.9999 L2.9002,27.0839 L4.0802,27.0839 L4.0802,23.4669 L5.9502,27.2059 L7.8202,23.4669 L7.8202,27.0839 L9.0002,27.0839 L9.0002,19.9999 L7.8512,19.9999 L5.9502,24.7529 Z M30.0002,13.4999 L30.0002,13.4999 C30.0002,12.6709 29.3282,11.9999 28.5002,11.9999 L3.5002,11.9999 C2.6722,11.9999 2.0002,12.6709 2.0002,13.4999 C2.0002,14.3289 2.6722,14.9999 3.5002,14.9999 L28.5002,14.9999 C29.3282,14.9999 30.0002,14.3289 30.0002,13.4999 L30.0002,13.4999 Z M28.5002,6.9999 L3.5002,6.9999 C2.6722,6.9999 2.0002,6.3289 2.0002,5.4999 C2.0002,4.6709 2.6722,3.9999 3.5002,3.9999 L28.5002,3.9999 C29.3282,3.9999 30.0002,4.6709 30.0002,5.4999 C30.0002,6.3289 29.3282,6.9999 28.5002,6.9999 L28.5002,6.9999 Z"/>
</svg>

<svg width="32" height="32" fill="none" xmlns="http://www.w3.org/2000/svg">
  <path fill-rule="evenodd" clip-rule="evenodd" d="M27.824 20v4.512c0 .789-.473 1.589-1.374 1.589-.9 0-1.374-.8-1.374-1.59V20H23.9v4.512c0 1.524 1.096 2.673 2.55 2.673 1.454 0 2.55-1.15 2.55-2.673V20h-1.176zm-7 4.509l-2.79-4.51H16.9v7.063h1.176v-4.51l2.791 4.51H22V20h-1.176v4.509zm-9.924 2.52H15v-1.171h-2.929V24.1h1.952v-1.172h-1.952v-1.757h2.93V20h-4.1v7.029zm-4.95-2.276l-1.877-4.691L4.05 20H2.9v7.084h1.18v-3.617l1.87 3.739 1.87-3.74v3.618H9V20H7.851l-1.9 4.753zM30 13.5a1.5 1.5 0 00-1.5-1.5h-25a1.5 1.5 0 100 3h25a1.5 1.5 0 001.5-1.5zM28.5 7h-25a1.5 1.5 0 110-3h25a1.5 1.5 0 110 3z" fill="#000"/>
</svg>
